X: 69
M:4/4
L:1/8
K:D
f|sd/2e/2f/2g/2s af bgaf|sd/2e/2f/2g/2s af geef|sd/2e/2f/2g/2s af bgaf|A
aag feef|
d/2e/2f/2g/2 af bgag|d/2e/2f/2g/2 af geeg|fdef dBAF|ABde fdd||

